X: 1
T: Tie The Bonnet
M: 4/4
L: 1/8
R: reel
K: Edor
~E3B BABG|EFGE FDDF|~E3B BABc|1 dfed dBAF:|2 dfed dBAd||
|:BA (3Bcd efge|fdfa afdf|g2bg faaf|1 (3efg fe dBAd:|2 (3efg fe dBAF||
